assets/icons/document.svg

<?xml version="1.0" encoding="UTF-8"?>
<svg width="24px" height="24px" viewBox="0 0 24 24" version="1.1" xmlns="http://www.w3.org/2000/svg" xmlns:xlink="http://www.w3.org/1999/xlink">
    <title>VW/Icons/document</title>
    <defs>
        <path d="M21.975,5.39999997 C21.975,5.39999997 21.975,5.39999997 21.975,5.39999997 C21.9,5.32499997 21.9,5.32499997 21.9,5.32499997 L16.65,0.0749999503 C16.65,0.0749999503 16.65,0.0749999503 16.575,0.0749999503 C16.575,0.0749999503 16.575,0.0749999503 16.5,0.0749999503 C16.5,0.0749999503 16.425,0.0749999503 16.425,0.0749999503 L2.32499996,0.0749999503 C2.09999996,-5.00000017e-08 2.02499996,0.149999951 2.02499996,0.299999951 L2.02499996,23.7 C2.02499996,23.85 2.17499996,24 2.32499996,24 L21.75,24 C21.9,24 22.05,23.85 22.05,23.7 L22.05,5.54999997 C21.975,5.47499997 21.975,5.47499997 21.975,5.39999997 Z M16.725,0.974999954 L21,5.24999997 L17.1,5.24999997 C16.875,5.24999997 16.725,5.09999997 16.725,4.87499997 L16.725,0.974999954 Z M21.45,23.4 L2.54999996,23.4 L2.54999996,0.599999952 L16.125,0.599999952 L16.125,3.44999996 L5.32499997,3.44999996 L5.32499997,3.82499997 L16.2,3.82499997 L16.2,4.87499997 C16.2,5.39999997 16.65,5.84999997 17.175,5.84999997 L21.45,5.84999997 L21.45,23.4 Z M18.675,14.4 L5.32499997,14.4 C5.24999997,14.4 5.17499997,14.475 5.17499997,14.55 L5.17499997,20.325 C5.17499997,20.4 5.24999997,20.475 5.32499997,20.475 L18.75,20.475 C18.825,20.475 18.9,20.4 18.9,20.325 L18.9,14.55 C18.9,14.475 18.825,14.4 18.675,14.4 Z M18.525,20.175 L5.47499997,20.175 L5.47499997,14.775 L18.525,14.775 L18.525,20.175 Z M5.09999997,6.22499998 L5.09999997,9.37499999 C5.09999997,9.44999999 5.17499997,9.52499999 5.24999997,9.52499999 L18.675,9.52499999 C18.75,9.52499999 18.825,9.44999999 18.825,9.37499999 L18.825,6.22499998 C18.825,6.14999998 18.75,6.07499998 18.675,6.07499998 L5.32499997,6.07499998 C5.17499997,6.07499998 5.09999997,6.14999998 5.09999997,6.22499998 Z M5.47499997,6.44999998 L18.525,6.44999998 L18.525,9.22499999 L5.47499997,9.22499999 L5.47499997,6.44999998 Z M18.675,11.775 L5.32499997,11.775 L5.32499997,12.15 L18.75,12.15 L18.75,11.775 L18.675,11.775 Z" id="path-1"></path>
    </defs>
    <g id="VW/Icons/document" stroke="none" stroke-width="1" fill="none" fill-rule="evenodd">
        <mask id="mask-2" fill="white">
            <use xlink:href="#path-1"></use>
        </mask>
        <g fill-rule="nonzero"></g>
        <g id="Group" mask="url(#mask-2)" fill="#000000">
            <g id="🎨-color">
                <rect id="Swatch" x="0" y="0" width="24" height="24"></rect>
            </g>
        </g>
    </g>
</svg>

<svg
    xmlns="http://www.w3.org/2000/svg"    
    x="0px"
    y="0px"
    viewBox="0 0 24 24"
    aria-labelledby="chevron down"
    role="presentation"
  >
    <title  lang="en">chevron down</title>

    <g fill="currentColor">
	<path id="path-1_00000079444830687796752660000014226970890358884995_" d="M22,5.4L22,5.4C21.9,5.3,21.9,5.3,22,5.4l-5.3-5.3
		c0,0,0,0-0.1,0c0,0,0,0-0.1,0h-0.1H2.3C2.1,0,2,0.1,2,0.3v23.4C2,23.9,2.2,24,2.3,24h19.4c0.1,0,0.3-0.1,0.3-0.3V5.6
		C22,5.5,22,5.5,22,5.4z M16.7,1L21,5.2h-3.9c-0.2,0-0.4-0.2-0.4-0.4V1z M21.5,23.4H2.5V0.6h13.6v2.9H5.3v0.4h10.9v1
		c0,0.5,0.4,1,1,1h4.3V23.4z M18.7,14.4H5.3c-0.1,0-0.1,0.1-0.1,0.2v5.8c0,0.1,0.1,0.1,0.1,0.1h13.4c0.1,0,0.1-0.1,0.1-0.1v-5.8
		C18.9,14.5,18.8,14.4,18.7,14.4z M18.5,20.2h-13v-5.4h13V20.2z M5.1,6.2v3.2c0,0.1,0.1,0.1,0.2,0.1h13.4c0.1,0,0.2-0.1,0.2-0.1V6.2
		c0-0.1-0.1-0.2-0.2-0.2H5.3C5.2,6.1,5.1,6.2,5.1,6.2z M5.5,6.4h13v2.8h-13V6.4z M18.7,11.8H5.3v0.4h13.4L18.7,11.8L18.7,11.8z"/>
</g>
</svg>
